X: 1
T: The Spey In Spate
R: reel
M: 4/4
L: 1/8
K: Dmaj
(3A,B,C | D2FD A,DFA | dcBA ^GAFD | E2GE B,EGB | gecA GECA, |
D2FD A,DFA | dDcD BDAf | gefd ecdB | AFGE DABc |
d/2d/2dfd AdFA | DFAd fagf | e/2e/2ege BeGB | CEAc egfe |
d/2d/2dfd AdFA | DFAd fagf | gefd ecdB | AFGE D4 |


Tune 2602	Setting 28004

